Origami/16x16/apps/supermeatboy.svg

<svg width="16" height="16" version="1.1" viewBox="0 0 16 16" xmlns="http://www.w3.org/2000/svg">
 <path d="M 8,0 C 5.6099616,0.06566364 2.9368476,0.43331268 0.87402344,0.96138596 0.31143444,1.1077275 0.10078648,1.188919 0,1.3430125 V 15.241628 C 0,15.741353 3.00001,15.991437 3.4843752,16 4.00001,15.991437 6.4,15.741353 6.4,15.241628 V 13.6 H 8 9.6 v 1.641628 C 9.6,15.741353 11.99999,15.991437 12.515625,16 12.99999,15.991437 16,15.741353 16,15.241628 V 1.3430125 C 15.899214,1.188919 15.688566,1.1077275 15.125976,0.96138596 13.063152,0.43331268 10.390038,0.06566364 8,0 Z" style="fill:#e84343"/>
 <path d="m3.3189975 6.5c0.9107965-0.0863565 0.907131-0.095679 2.5253064-0.2242325 0.1754705-0.486736 0.3344475-0.778189-0.3042095-1.6849319-0.703256-1.010272-1.8325879-0.5750555-2.2907354 0.1879235-0.3917155 0.8566949-0.2863415 1.3954414 0.0696385 1.7212409" style="fill:#2f2f2f"/>
 <path d="M 5,5.5000005 C 5,5.773942 4.7764505,6 4.5000005,6 4.2235495,6 4,5.773942 4,5.5000005 4,5.226058 4.2235495,5 4.5000005,5 4.7764505,5 5,5.226058 5,5.5000005 m 0,0" style="fill:#ffffff"/>
 <path d="m10.235943 5.9930875c0.92102 0.017168 2.264061-0.00305 2.38113-0.00305 0.375743-0.2658223 0.640049-1.3025296-0.02429-2.3231775-0.729102-1.1402673-1.904905-0.6490494-2.38113 0.2121044-0.407174 0.9669292-0.128582 1.6062875 0.02428 2.1080273" style="fill:#2f2f2f"/>
 <path d="M 12,4.5000005 C 12,4.778397 11.775685,5 11.498287,5 11.224315,5 11,4.778397 11,4.5000005 c 0,-0.273942 0.224315,-0.5 0.498287,-0.5 0.277398,0 0.501713,0.226058 0.501713,0.5 m 0,0" style="fill:#ffffff"/>
 <path d="m3 7.2140013c3.3220833-0.2251454 6.6504167-0.3398194 10 0-0.551667 3.6725727-2.571667 3.7127987-4.5833333 3.7710357-2.2625 0.159703-5.0166667-0.949813-5.4166667-3.7710357" style="fill:#2f2f2f"/>
 <path d="m4.0000007 8.7002982c0.037101 0.1532168-0.061629 0.3131862 0.1045061 0.4104396 1.0289664 0.5998987 2.9599271 0.8664077 4.2704579 0.8889287 1.7343193 0.0078 3.1013273-0.118751 3.5667523-0.6411889 0.101413-0.1146564 0.03796-0.5000569 0.04581-0.6706767l-0.97666-0.020133 0.97666-0.077461v-0.558469h-4.984742l-0.00557 0.9682621h-0.992615l-0.0092-0.9999968-1.9935356-3e-7 0.00184 0.631706 0.750084 0.021497" style="fill:#ffffff"/>
 <path d="m3.0087563 6.5261448v0.028551c-0.011675 0.035348-0.011675 0.074325 0 0.1096752 0.011675 0.044415 0.039615 0.079761 0.069582 0.1151123 0.1112314 0.1223635 0.2818879 0.1985015 0.4561001 0.2161763 0.1767513 0.017676 0.357058-0.019491 0.5140012-0.095625 0.1371352-0.065715 0.2559852-0.1577144 0.3926119-0.2247878 0.1330718-0.062088 0.2757933-0.095625 0.428673-0.104236 0.2183998-0.00907 0.4362916 0.040791 0.6587549 0.019491 0.1092001-0.00907 0.2163682-0.037162 0.3057594-0.095625 0.04368-0.028552 0.083296-0.063902 0.1112313-0.1028763 0.032-0.046223 0.049775-0.090187 0.05333-0.1418513 0.0061-0.060278-0.011674-0.1187409-0.039614-0.1735776-0.0279352-0.0530243-0.0716148-0.1010633-0.1188503-0.1418512-0.0970102-0.0833892-0.2143362-0.1432109-0.3255678-0.210738-0.059425-0.0371651-0.1208816-0.0779499-0.1945283-0.0974373-0.0853281-0.0231151-0.1803067-0.0072501-0.2717299-0.0176751-0.09701-0.0090625-0.1843703-0.0444151-0.2757934-0.0670736-0.1864017-0.0494002-0.384993-0.053025-0.5774892-0.0213001-0.1904652 0.0299101-0.3707719 0.1010637-0.5358416 0.194876-0.1569427 0.0883733-0.3016964 0.2052989-0.372803 0.3557611-0.013715 0.02991-0.02387 0.06209-0.039615 0.092-0.055361 0.1327876-0.1386582 0.2551514-0.2382078 0.3630129" style="fill:#cd5d82"/>
 <g transform="rotate(-45,6.75,5.517767)">
  <path d="m8 1v3" style="fill:none;stroke-width:1px;stroke:#efefef"/>
  <path d="m9.5 2.5h-3" style="fill:none;stroke-width:1px;stroke:#efefef"/>
 </g>
</svg>

<svg xmlns="http://www.w3.org/2000/svg" width="16" height="16" version="1.1" viewBox="0 0 16 16">
 <path style="fill:#e84343" d="M 8,0 C 5.6099616,0.06566364 2.9368476,0.43331268 0.87402344,0.96138596 0.31143444,1.1077275 0.10078648,1.188919 0,1.3430125 V 15.241628 C 0,15.741353 3.00001,15.991437 3.4843752,16 4.00001,15.991437 6.4,15.741353 6.4,15.241628 V 13.6 H 8 9.6 v 1.641628 C 9.6,15.741353 11.99999,15.991437 12.515625,16 12.99999,15.991437 16,15.741353 16,15.241628 V 1.3430125 C 15.899214,1.188919 15.688566,1.1077275 15.125976,0.96138596 13.063152,0.43331268 10.390038,0.06566364 8,0 Z"/>
 <path style="fill:#2f2f2f" d="M 3.3189975,6.5 C 4.229794,6.4136435 4.2261285,6.404321 5.8443039,6.2757675 6.0197744,5.7890315 6.1787514,5.4975785 5.5400944,4.5908356 4.8368384,3.5805636 3.7075065,4.0157801 3.249359,4.7787591 2.8576435,5.635454 2.9630175,6.1742005 3.3189975,6.5 m 0,0"/>
 <path style="fill:#ffffff" d="M 5,5.5000005 C 5,5.773942 4.7764505,6 4.5000005,6 4.2235495,6 4,5.773942 4,5.5000005 4,5.226058 4.2235495,5 4.5000005,5 4.7764505,5 5,5.226058 5,5.5000005 m 0,0"/>
 <path style="fill:#2f2f2f" d="m 10.235943,5.9930875 c 0.92102,0.017168 2.264061,-0.00305 2.38113,-0.00305 0.375743,-0.2658223 0.640049,-1.3025296 -0.02429,-2.3231775 -0.729102,-1.1402673 -1.904905,-0.6490494 -2.38113,0.2121044 -0.407174,0.9669292 -0.128582,1.6062875 0.02428,2.1080273"/>
 <path style="fill:#ffffff" d="M 12,4.5000005 C 12,4.778397 11.775685,5 11.498287,5 11.224315,5 11,4.778397 11,4.5000005 c 0,-0.273942 0.224315,-0.5 0.498287,-0.5 0.277398,0 0.501713,0.226058 0.501713,0.5 m 0,0"/>
 <path style="fill:#2f2f2f" d="m 3,7.2140013 c 3.3220833,-0.2251454 6.6504167,-0.3398194 10,0 C 12.448333,10.886574 10.428333,10.9268 8.4166667,10.985037 6.1541667,11.14474 3.4,10.035224 3,7.2140013 m 0,0"/>
 <path style="fill:#ffffff" d="m 4.0000007,8.7002982 c 0.037101,0.1532168 -0.061629,0.3131862 0.1045061,0.4104396 1.0289664,0.5998987 2.9599271,0.8664077 4.2704579,0.8889287 1.7343193,0.0078 3.1013273,-0.118751 3.5667523,-0.6411889 0.101413,-0.1146564 0.03796,-0.5000569 0.04581,-0.6706767 l -0.97666,-0.020133 0.97666,-0.077461 V 8.0317379 H 7.002785 L 6.997215,9 H 6.0046 l -0.0092,-0.9999968 -1.9935356,-3e-7 0.00184,0.631706 0.750084,0.021497"/>
 <path style="fill:#cd5d82" d="m 3.0087563,6.5261448 v 0.028551 c -0.011675,0.035348 -0.011675,0.074325 0,0.1096752 0.011675,0.044415 0.039615,0.079761 0.069582,0.1151123 0.1112314,0.1223635 0.2818879,0.1985015 0.4561001,0.2161763 0.1767513,0.017676 0.357058,-0.019491 0.5140012,-0.095625 0.1371352,-0.065715 0.2559852,-0.1577144 0.3926119,-0.2247878 0.1330718,-0.062088 0.2757933,-0.095625 0.428673,-0.104236 0.2183998,-0.00907 0.4362916,0.040791 0.6587549,0.019491 0.1092001,-0.00907 0.2163682,-0.037162 0.3057594,-0.095625 0.04368,-0.028552 0.083296,-0.063902 0.1112313,-0.1028763 0.032,-0.046223 0.049775,-0.090187 0.05333,-0.1418513 0.0061,-0.060278 -0.011674,-0.1187409 -0.039614,-0.1735776 C 5.9312509,6.0235473 5.8875713,5.9755083 5.8403358,5.9347204 5.7433256,5.8513312 5.6259996,5.7915095 5.514768,5.7239824 5.455343,5.6868173 5.3938864,5.6460325 5.3202397,5.6265451 5.2349116,5.60343 5.139933,5.619295 5.0485098,5.60887 4.9514998,5.5998075 4.8641395,5.5644549 4.7727164,5.5417964 4.5863147,5.4923962 4.3877234,5.4887714 4.1952272,5.5204963 4.004762,5.5504064 3.8244553,5.62156 3.6593856,5.7153723 3.5024429,5.8037456 3.3576892,5.9206712 3.2865826,6.0711334 c -0.013715,0.02991 -0.02387,0.06209 -0.039615,0.092 C 3.1916066,6.295921 3.1083094,6.4182848 3.0087598,6.5261463"/>
 <g transform="rotate(-45,6.75,5.517767)">
  <path style="fill:none;stroke:#efefef;stroke-width:1px" d="M 8,1 V 4 4"/>
  <path style="fill:none;stroke:#efefef;stroke-width:1px" d="m 9.5,2.5 h -3 v 0"/>
 </g>
</svg>
